X: 134008
Q: "Irish Reel."
M: C
L: 1/8
K: D
|: uA |\
dAAB =c2(BA) | GEEG =c2(Bc) |\
dAAB =c2(BA) | GE=cE D2-D :|\
dcde f2(ed) | cdef g2(fe) |
dcde f2(ed) | efga fddA |\
dcde f2(ed) | cdef g2(fg) |\
afge fdec | dBAG FDD |]


